X:1
T:Title
%%score { 1 | 2 }
L:1/8
Q:1/4=100
M:4/4
K:F
V:1 treble nm="Grand Piano"
V:2 bass 
V:1
 A2 A>A GF z F | F>F F>D F4 | [B,EG]2 [B,EG]>[B,EG] [B,EG][A,F] z [B,EG] | [FA]>[FA] [EA]>[EG] F4 | %4
w: Geo.~C.~Hugg * * * * *||||
 A2 A>A Ac z c |[M:7/8] d>cc>A [EG]2 z |[M:1/8] F |[M:4/4] A>A A>[C_EF] [B,D][DF] z [DG] | %8
w: ||||
[M:3/4] [CA]2 [EG]2 F2 |[M:1/4] AB |[M:7/8] c2 d2 c2 z |[M:1/8] A |[M:4/4] [EG]2 [FA]2 [GB]4 | %13
w: |||||
 c>c c>d cA z F | [EA]2 [EG]2 F4 |[M:1/4] AB |[M:7/8] c2 d2 c2 z |[M:1/8] A | %18
w: |||||
[M:4/4] [EG]2 [FA]2 [GB]4 | c>c c>d cA z F | [EA]2 [EG]2 F4 |] %21
w: |||
V:2
 [F,CF]2 [F,CF]>[F,CF] [F,B,F][F,A,] z [F,A,_E] | [F,B,D]>[F,B,D] [F,B,D]>[F,B,] [F,A,C]4 | %2
 C,2 C,>C, C,C, z C, | [C,C]>[C,C] [C,C]>[C,B,] [F,A,]4 | %4
 [F,CF]2 [F,CF]>[F,CF] [F,CF][F,A,F] z [F,A,F] |[M:7/8] [F,B,F]>[F,A,F][F,A,F]>[F,CF] [C,C]2 z | %6
[M:1/8] [F,A,] |[M:4/4] [F,CF]>[F,CF] [F,CF]>A,, B,,[B,,B,] z [B,,B,] | %8
[M:3/4] [C,F,]2 [C,B,]2 [F,A,]2 |[M:1/4] [F,CF][F,G,F] |[M:7/8] [F,A,F]2 [F,B,F]2 [F,A,F]2 z | %11
[M:1/8] [F,CF] |[M:4/4] [C,C]2 [C,C]2 [C,C]4 | %13
 [F,A,F]>[F,A,F] [F,A,F]>[F,B,F] [F,A,F][F,CF] z [F,A,C] | [C,C]2 [C,B,]2 [F,A,]4 | %15
[M:1/4] [F,CF][F,G,F] |[M:7/8] [F,A,F]2 [F,B,F]2 [F,A,F]2 z |[M:1/8] [F,CF] | %18
[M:4/4] [C,C]2 [C,C]2 [C,C]4 | [F,A,F]>[F,A,F] [F,A,F]>[F,B,F] [F,A,F][F,CF] z [F,A,C] | %20
 [C,C]2 [C,B,]2 [F,A,]4 |] %21

